X:55
T:Stephen MacDougall
R:reel
C:Paul S. Cranford
O:Cape Breton Island
S:http://www.cranfordpub.com
D:currently unrecorded
B:currently unpublished in book form
Z:psc, (re-formatted,updated 9/17/04)
N:
H:                                                        copyrights Cranford Publications, SOCAN
Q:333
M:C|
K:Dmix
E|D2 dD ADFD|CGEF GcEC|D2 dD ADFD|CGEG ADDE|
D2 dD ADFD|CGEF GcEe|dBcA GcEA|GEce dDD||
||c|{c}d2 ed cAdB|cAdB cAGE|D2 ed cAdA|GEce dDDc|
{c}d2 ed cAdB|cAdB cAGc|(3(efg) ec dBcA|GEce dDD|]
